Adwaita++-Dark/actions/16/edit-select-lasso.svg

<svg fill="none" height="16" viewBox="0 0 16 16" width="16" xmlns="http://www.w3.org/2000/svg" xmlns:xlink="http://www.w3.org/1999/xlink">
  <clipPath id="clip0">
    <path d="m0 0h16v16h-16z"/>
  </clipPath>
  <g clip-path="url(#clip0)" clip-rule="evenodd" fill="#e6ddff" fill-rule="evenodd">
    <path d="m15.8071 7.45655-1.9307-.52161c.0806-.29849.1236-.61108.1236-.93494s-.043-.63645-.1236-.93494l1.9307-.52161c.126.46632.1929.95422.1929 1.45655s-.0669.99023-.1929 1.45655zm-.8269-4.68442-1.6441 1.13886c-.3666-.52928-.8758-.98875-1.4933-1.32527l.957-1.756141c.8817.480481 1.6297 1.147631 2.1804 1.942551zm-4.0171-2.619513-.4154 1.956383c-.3341-.07095-.68466-.109-1.0477-.109s-.71358.03805-1.04771.109l-.41541-1.956383c.47026-.0998557.96002-.152617 1.46312-.152617s.9929.0527613 1.4631.152617zm-4.76294.676961.95706 1.756142c-.6175.33652-1.12669.79598-1.49333 1.32527l-1.64408-1.13886c.55064-.79492 1.2987-1.46207 2.18035-1.942552zm-3.00731 3.713872c-.12598.46632-.19285.95422-.19285 1.45655s.06687.99023.19285 1.45655l1.93078-.52161c-.08063-.29849-.12363-.61108-.12363-.93494s.043-.63645.12363-.93494zm.82696 4.68442 1.64408-1.13886c.36664.52928.87583.98875 1.49333 1.32527l-.95706 1.75612c-.88165-.4805-1.62971-1.1476-2.18035-1.94253zm4.01707 2.61953.41541-1.9564c.33413.07095.68467.109 1.04771.109s.7136-.03805 1.0477-.109l.4154 1.9564c-.4702.0998-.96.1526-1.4631.1526s-.99286-.0528-1.46312-.1526zm4.76292-.677-.957-1.75612c.6175-.33652 1.1267-.79598 1.4933-1.32527l1.6441 1.13886c-.5507.79493-1.2987 1.46203-2.1804 1.94253z"/>
    <path d="m6.05819 10.652-3.97398 4.6209c-.18005.2094-.49574.2332-.70511.0531l-.758186-.652c-.209367-.1801-.233129-.4958-.053073-.7051l3.973979-4.62094z"/>
  </g>
</svg>

<svg xmlns="http://www.w3.org/2000/svg" fill="none" width="16" height="16" viewBox="0 0 16 16">
 <g clip-path="url(#clip0)">
  <path fill="#E6DDFF" fill-rule="evenodd" d="M15.8071 7.45655L13.8764 6.93494C13.957 6.63645 14 6.32386 14 6C14 5.67614 13.957 5.36355 13.8764 5.06506L15.8071 4.54345C15.9331 5.00977 16 5.49767 16 6C16 6.50233 15.9331 6.99023 15.8071 7.45655ZM14.9802 2.77213L13.3361 3.91099C12.9695 3.38171 12.4603 2.92224 11.8428 2.58572L12.7998 0.829579C13.6815 1.31006 14.4295 1.97721 14.9802 2.77213ZM10.9631 0.152617L10.5477 2.109C10.2136 2.03805 9.86304 2 9.5 2C9.13696 2 8.78642 2.03805 8.45229 2.109L8.03688 0.152617C8.50714 0.0527613 8.9969 0 9.5 0C10.0031 0 10.4929 0.0527613 10.9631 0.152617ZM6.20016 0.829578L7.15722 2.58572C6.53972 2.92224 6.03053 3.3817 5.66389 3.91099L4.01981 2.77213C4.57045 1.97721 5.31851 1.31006 6.20016 0.829578ZM3.19285 4.54345C3.06687 5.00977 3 5.49767 3 6C3 6.50233 3.06687 6.99023 3.19285 7.45655L5.12363 6.93494C5.043 6.63645 5 6.32386 5 6C5 5.67614 5.043 5.36355 5.12363 5.06506L3.19285 4.54345ZM4.01981 9.22787L5.66389 8.08901C6.03053 8.61829 6.53972 9.07776 7.15722 9.41428L6.20016 11.1704C5.31851 10.6899 4.57045 10.0228 4.01981 9.22787ZM8.03688 11.8474L8.45229 9.891C8.78642 9.96195 9.13696 10 9.5 10C9.86304 10 10.2136 9.96195 10.5477 9.891L10.9631 11.8474C10.4929 11.9472 10.0031 12 9.5 12C8.9969 12 8.50714 11.9472 8.03688 11.8474ZM12.7998 11.1704L11.8428 9.41428C12.4603 9.07776 12.9695 8.6183 13.3361 8.08901L14.9802 9.22787C14.4295 10.0228 13.6815 10.6899 12.7998 11.1704Z" clip-rule="evenodd"/>
  <path fill="#E6DDFF" fill-rule="evenodd" d="M6.05819 10.652L2.08421 15.2729C1.90416 15.4823 1.58847 15.5061 1.3791 15.326L0.620914 14.674C0.411547 14.4939 0.387785 14.1782 0.567841 13.9689L4.54182 9.34796L6.05819 10.652Z" clip-rule="evenodd"/>
 </g>
 <defs>
  <clipPath id="clip0">
   <rect fill="#fff" width="16" height="16"/>
  </clipPath>
 </defs>
</svg>
